X: 3343
T: Belles Of Tipperary, The
R: reel
M: 4/4
K: Dmajor
|:dA ~A2 DEFA|defe dBBA|~B2 AF ABde|fede fe (3eee|
dA ~A2 DEFA|d2fe dBBA|~B2 AF ABdB|AFEG FDD2:|
|:faab afdf|gfed (3Bcd ef|g2 gf gbag|fbaf egfe|
dB~B2 AF~F2|D~F3 ABdf|afef dBAF|A2 ag fdd2:|

